X:1
T:The Lady and the Gypsy
M:4/4
L:1/4
K:Bb
 F| d d c d/2c/2| B B/2G/2 F F| d d c B/2A/2| B F F| F/2F/2| f f e d/2c/2|\
 dc/2-B/2 F D/2E/2| F F/2F/2E/2-D/2 C| D B, F| F| B F/2F/2 ED/2-C/2|\
 D B, B,||
